X: 23772
T: Little Diamond, The
R: polka
M: 2/4
K: Dmajor
|:A>B AF|DF Ad|A>B AF|GF EF/E/|
DE FG|AB cd|e>d ce|d2 d2:|
|:fd ge|fd cB|AB cd|fe e>g|
fd ge|fd cB|Ag ec|d2 d2:|

